public/assets/manage.svg

<svg viewBox="0 0 50 50" fill="none" xmlns="http://www.w3.org/2000/svg">
<path d="M24.8099 20.1894C25.3495 20.19 25.8668 20.4083 26.2483 20.7962C26.6299 21.1842 26.8445 21.7102 26.8451 22.2589C26.8451 22.4119 26.9049 22.5586 27.0113 22.6668C27.1176 22.775 27.2619 22.8358 27.4124 22.8358C27.5629 22.8358 27.7071 22.775 27.8135 22.6668C27.9199 22.5586 27.9797 22.4119 27.9797 22.2589C27.9787 21.4876 27.7062 20.7422 27.2115 20.1576C26.7167 19.5729 26.0325 19.1877 25.2826 19.0717V17.9001C25.2826 17.7471 25.2229 17.6004 25.1165 17.4922C25.0101 17.384 24.8658 17.3232 24.7153 17.3232C24.5649 17.3232 24.4206 17.384 24.3142 17.4922C24.2078 17.6004 24.148 17.7471 24.148 17.9001V19.107C23.3822 19.2732 22.7041 19.7218 22.2443 20.3663C21.7844 21.0108 21.5755 21.8055 21.6577 22.5974C21.7399 23.3892 22.1074 24.1221 22.6895 24.6547C23.2715 25.1873 24.0268 25.4821 24.8099 25.4821C25.2124 25.4821 25.6059 25.6034 25.9406 25.8308C26.2753 26.0582 26.5361 26.3815 26.6902 26.7596C26.8442 27.1378 26.8845 27.5539 26.806 27.9553C26.7274 28.3567 26.5336 28.7255 26.249 29.0149C25.9643 29.3043 25.6017 29.5014 25.2069 29.5812C24.8121 29.6611 24.4029 29.6201 24.031 29.4634C23.6591 29.3068 23.3413 29.0415 23.1176 28.7012C22.894 28.3609 22.7747 27.9607 22.7747 27.5514C22.7747 27.3984 22.7149 27.2517 22.6085 27.1435C22.5021 27.0354 22.3578 26.9746 22.2074 26.9746C22.0569 26.9746 21.9126 27.0354 21.8062 27.1435C21.6998 27.2517 21.6401 27.3984 21.6401 27.5514C21.6411 28.2891 21.8905 29.0042 22.3468 29.5777C22.8031 30.1511 23.4388 30.5484 24.148 30.7034V31.8407C24.148 31.9937 24.2078 32.1405 24.3142 32.2486C24.4206 32.3568 24.5649 32.4176 24.7153 32.4176C24.8658 32.4176 25.0101 32.3568 25.1165 32.2486C25.2229 32.1405 25.2826 31.9937 25.2826 31.8407V30.7387C26.0733 30.6174 26.7898 30.1967 27.2883 29.5609C27.7868 28.9252 28.0306 28.1213 27.9708 27.3105C27.911 26.4997 27.552 25.7418 26.9658 25.1887C26.3796 24.6357 25.6095 24.3284 24.8099 24.3284C24.2701 24.3284 23.7525 24.1103 23.3708 23.7222C22.9891 23.3341 22.7747 22.8078 22.7747 22.2589C22.7747 21.71 22.9891 21.1837 23.3708 20.7956C23.7525 20.4075 24.2701 20.1894 24.8099 20.1894Z" fill="#A8A5CE" stroke="#A8A5CE"/>
<path d="M45.7421 21.7414C44.9948 21.7423 44.2704 21.9998 43.69 22.4708C43.1097 22.9418 42.7087 23.5977 42.554 24.3289H41.2956C41.1331 20.4481 39.5858 16.7539 36.9342 13.9156L37.8286 13.0214C38.5006 13.4809 39.3203 13.6722 40.1263 13.5575C40.9323 13.4428 41.6662 13.0305 42.1834 12.4018C42.7006 11.7731 42.9637 10.9735 42.9208 10.1605C42.878 9.34753 42.5322 8.58005 41.9518 8.00922C41.3713 7.43839 40.5982 7.10557 39.7846 7.07631C38.971 7.04704 38.1759 7.32346 37.5559 7.85112C36.9359 8.37877 36.536 9.11943 36.4348 9.92724C36.3337 10.7351 36.5386 11.5515 37.0093 12.2157L36.1224 13.1026C33.2043 10.3689 29.3808 8.80692 25.3833 8.71558V7.49196C26.1915 7.39612 26.9346 7.00119 27.4662 6.38492C27.9978 5.76865 28.2794 4.97569 28.2557 4.16216C28.2319 3.34863 27.9044 2.57347 27.3377 1.9893C26.771 1.40512 26.0062 1.05426 25.1938 1.00579C24.3813 0.957312 23.5802 1.21474 22.948 1.72738C22.3159 2.24002 21.8986 2.97074 21.7782 3.77568C21.6579 4.58061 21.8432 5.40143 22.2978 6.07654C22.7524 6.75165 23.4432 7.23214 24.2343 7.4234V8.72927C20.3904 8.90768 16.7345 10.4445 13.9176 13.066L13.023 12.1715C13.4831 11.4996 13.6751 10.6798 13.561 9.87347C13.4469 9.06716 13.035 8.33278 12.4065 7.81497C11.778 7.29715 10.9783 7.03343 10.1651 7.07573C9.35183 7.11803 8.58389 7.46329 8.01248 8.04351C7.44108 8.62374 7.10763 9.39688 7.07779 10.2107C7.04795 11.0245 7.3239 11.82 7.85128 12.4405C8.37866 13.061 9.11926 13.4616 9.92723 13.5633C10.7352 13.665 11.552 13.4606 12.2167 12.9902L13.1029 13.8764C10.4068 16.7434 8.84279 20.4915 8.70137 24.4246H7.46453C7.32096 23.6233 6.88257 22.9048 6.23569 22.4105C5.5888 21.9162 4.7803 21.6821 3.9694 21.7542C3.1585 21.8262 2.40397 22.1993 1.85439 22.7999C1.3048 23.4005 1 24.1851 1 24.9992C1 25.8132 1.3048 26.5978 1.85439 27.1984C2.40397 27.799 3.1585 28.1721 3.9694 28.2442C4.7803 28.3162 5.5888 28.0821 6.23569 27.5878C6.88257 27.0935 7.32096 26.375 7.46453 25.5737H8.69974C8.83142 29.5447 10.4132 33.3299 13.1461 36.2139L12.2947 37.0653C11.6453 36.5767 10.8366 36.349 10.0277 36.4268C9.21882 36.5047 8.46839 36.8825 7.92414 37.486C7.3799 38.0894 7.08128 38.8748 7.08707 39.6874C7.09286 40.5 7.40264 41.281 7.95543 41.8766C8.50822 42.4722 9.26396 42.8394 10.0739 42.9057C10.8838 42.972 11.6892 42.7327 12.3315 42.235C12.9738 41.7372 13.4066 41.017 13.5445 40.2162C13.6824 39.4153 13.5155 38.5919 13.0767 37.9079L13.964 37.0206C16.7994 39.6386 20.474 41.162 24.33 41.3179V42.5531C23.5332 42.7205 22.828 43.1801 22.3531 43.8415C21.8783 44.5029 21.6683 45.3181 21.7645 46.1266C21.8606 46.9351 22.256 47.6783 22.8728 48.2099C23.4895 48.7414 24.283 49.0228 25.0968 48.9986C25.9106 48.9743 26.6859 48.6463 27.27 48.079C27.8541 47.5118 28.2046 46.7464 28.2525 45.9336C28.3005 45.1208 28.0424 44.3195 27.5291 43.6875C27.0157 43.0555 26.2844 42.6386 25.4791 42.5189V41.325C29.4871 41.2098 33.3111 39.6172 36.2159 36.8533L37.0665 37.7039C36.5763 38.3538 36.3473 39.1637 36.4244 39.974C36.5016 40.7843 36.8793 41.5365 37.4832 42.0822C38.0871 42.628 38.8735 42.9279 39.6875 42.9229C40.5015 42.9178 41.2841 42.6082 41.8813 42.055C42.4784 41.5018 42.8468 40.7451 42.9139 39.9338C42.981 39.1226 42.7419 38.3156 42.2438 37.6718C41.7457 37.0281 41.0245 36.5941 40.2224 36.4554C39.4203 36.3167 38.5954 36.4833 37.91 36.9224L37.0214 36.0339C39.6762 33.1474 41.1976 29.3982 41.3046 25.4779H42.5198C42.6115 26.095 42.8784 26.6728 43.2889 27.1426C43.6994 27.6125 44.2362 27.9545 44.8354 28.1282C45.4346 28.3018 46.0711 28.2998 46.6692 28.1223C47.2673 27.9447 47.8019 27.5992 48.2093 27.1267C48.6167 26.6543 48.88 26.0748 48.9677 25.4571C49.0553 24.8394 48.9638 24.2095 48.704 23.6423C48.4441 23.0751 48.0269 22.5944 47.5019 22.2575C46.9768 21.9205 46.366 21.7414 45.7421 21.7414ZM4.25844 27.1079C3.84137 27.1079 3.43367 26.9842 3.0869 26.7525C2.74013 26.5207 2.46986 26.1914 2.31027 25.8061C2.15068 25.4207 2.10893 24.9967 2.19031 24.5877C2.27168 24.1786 2.47253 23.8029 2.76745 23.508C3.06237 23.2131 3.43812 23.0123 3.84717 22.9309C4.25623 22.8495 4.68023 22.8913 5.06555 23.0509C5.45087 23.2105 5.78021 23.4808 6.01192 23.8276C6.24363 24.1744 6.3673 24.5821 6.3673 24.9992C6.36667 25.5583 6.14428 26.0943 5.74892 26.4896C5.35357 26.8849 4.81754 27.1073 4.25844 27.1079ZM38.1759 8.8413C38.4708 8.54637 38.8466 8.34551 39.2556 8.26413C39.6647 8.18275 40.0887 8.22451 40.4741 8.38412C40.8594 8.54373 41.1888 8.81403 41.4205 9.16083C41.6523 9.50763 41.7759 9.91536 41.7759 10.3325C41.7759 10.7496 41.6523 11.1573 41.4205 11.5041C41.1888 11.8509 40.8594 12.1212 40.4741 12.2808C40.0887 12.4404 39.6647 12.4822 39.2556 12.4008C38.8466 12.3194 38.4708 12.1185 38.1759 11.8236C37.9792 11.6283 37.8231 11.3959 37.7166 11.14C37.6101 10.8841 37.5553 10.6096 37.5553 10.3325C37.5553 10.0553 37.6101 9.78081 37.7166 9.5249C37.8231 9.26898 37.9792 9.03666 38.1759 8.8413ZM22.8914 4.25734C22.8914 3.84025 23.0151 3.43253 23.2468 3.08573C23.4786 2.73893 23.8079 2.46863 24.1933 2.30902C24.5786 2.1494 25.0026 2.10764 25.4117 2.18901C25.8208 2.27038 26.1966 2.47123 26.4915 2.76616C26.7864 3.06109 26.9873 3.43685 27.0686 3.84593C27.15 4.255 27.1082 4.67902 26.9486 5.06437C26.789 5.44971 26.5187 5.77907 26.1719 6.01079C25.8251 6.24252 25.4174 6.3662 25.0003 6.3662C24.4412 6.36556 23.9052 6.14318 23.5098 5.74783C23.1145 5.35248 22.8921 4.81645 22.8914 4.25734ZM8.84241 11.8236C8.54747 11.5287 8.34661 11.1529 8.26524 10.7438C8.18386 10.3348 8.22562 9.91074 8.38523 9.52539C8.54484 9.14004 8.81514 8.81068 9.16194 8.57895C9.50874 8.34723 9.91647 8.22354 10.3336 8.22354C10.7507 8.22354 11.1584 8.34723 11.5052 8.57895C11.852 8.81068 12.1223 9.14004 12.2819 9.52539C12.4415 9.91074 12.4833 10.3348 12.4019 10.7438C12.3205 11.1529 12.1197 11.5287 11.8247 11.8236C11.4289 12.2185 10.8927 12.4403 10.3336 12.4403C9.77446 12.4403 9.23819 12.2185 8.84241 11.8236ZM11.8247 41.157C11.4797 41.5019 11.0258 41.7166 10.5403 41.7644C10.0548 41.8122 9.56779 41.6902 9.16217 41.4191C8.75656 41.1481 8.45747 40.7448 8.31587 40.2779C8.17427 39.8111 8.19892 39.3096 8.38563 38.8589C8.57233 38.4082 8.90953 38.0361 9.33977 37.8062C9.77002 37.5762 10.2667 37.5025 10.7452 37.5977C11.2236 37.6929 11.6543 37.951 11.9638 38.3281C12.2733 38.7053 12.4424 39.178 12.4424 39.6658C12.4422 40.2251 12.22 40.7614 11.8247 41.157ZM27.1092 45.741C27.1092 46.1581 26.9856 46.5658 26.754 46.9127C26.5223 47.2596 26.193 47.5299 25.8076 47.6896C25.4223 47.8493 24.9983 47.8911 24.5892 47.8098C24.1801 47.7285 23.8043 47.5277 23.5093 47.2328C23.2143 46.9379 23.0134 46.5621 22.932 46.153C22.8506 45.7439 22.8923 45.3199 23.0519 44.9345C23.2115 44.5492 23.4818 44.2198 23.8286 43.988C24.1754 43.7563 24.5832 43.6326 25.0003 43.6326C25.5593 43.6332 26.0953 43.8555 26.4906 44.2508C26.886 44.646 27.1084 45.1819 27.1092 45.741ZM41.1582 38.1747C41.4531 38.4696 41.654 38.8454 41.7354 39.2545C41.8167 39.6635 41.775 40.0876 41.6154 40.4729C41.4557 40.8583 41.1855 41.1876 40.8386 41.4193C40.4918 41.6511 40.0841 41.7748 39.667 41.7748C39.2499 41.7748 38.8422 41.6511 38.4954 41.4193C38.1486 41.1876 37.8783 40.8583 37.7187 40.4729C37.5591 40.0876 37.5173 39.6635 37.5987 39.2545C37.6801 38.8454 37.8809 38.4696 38.1759 38.1747C38.3707 37.9772 38.6029 37.8203 38.8589 37.7133C39.1149 37.6062 39.3896 37.5511 39.667 37.5511C39.9445 37.5511 40.2192 37.6062 40.4752 37.7133C40.7311 37.8203 40.9633 37.9772 41.1582 38.1747ZM25.0003 40.1838C16.6399 40.1838 9.83833 33.3821 9.83833 25.0217C9.83833 16.6614 16.6399 9.85982 25.0003 9.85982C33.3607 9.85982 40.1623 16.6614 40.1623 25.0217C40.1623 33.3821 33.3607 40.1838 25.0003 40.1838ZM45.7421 27.1079C45.3251 27.1079 44.9174 26.9842 44.5706 26.7525C44.2238 26.5207 43.9536 26.1914 43.794 25.8061C43.6344 25.4207 43.5926 24.9967 43.674 24.5877C43.7554 24.1786 43.9562 23.8029 44.2512 23.508C44.5461 23.2131 44.9218 23.0123 45.3309 22.9309C45.7399 22.8495 46.1639 22.8913 46.5493 23.0509C46.9346 23.2105 47.2639 23.4808 47.4956 23.8276C47.7273 24.1744 47.851 24.5821 47.851 24.9992C47.8504 25.5583 47.628 26.0943 47.2326 26.4896C46.8373 26.8849 46.3012 27.1073 45.7421 27.1079Z" fill="#A8A5CE" stroke="#A8A5CE"/>
<path d="M24.7736 13C22.445 13 20.1687 13.6994 18.2325 15.0096C16.2964 16.3199 14.7873 18.1823 13.8962 20.3612C13.0051 22.5401 12.7719 24.9378 13.2262 27.2509C13.6805 29.564 14.8018 31.6888 16.4484 33.3564C18.095 35.0241 20.1928 36.1598 22.4767 36.6199C24.7605 37.08 27.1278 36.8439 29.2791 35.9413C31.4305 35.0388 33.2693 33.5104 34.563 31.5494C35.8567 29.5885 36.5472 27.283 36.5472 24.9245C36.5436 21.763 35.3021 18.7321 33.0949 16.4966C30.8877 14.2611 27.8951 13.0036 24.7736 13ZM24.7736 35.6915C22.671 35.6915 20.6157 35.06 18.8675 33.877C17.1193 32.6939 15.7567 31.0123 14.9521 29.0449C14.1475 27.0775 13.937 24.9126 14.3472 22.824C14.7573 20.7354 15.7698 18.8169 17.2565 17.3111C18.7433 15.8053 20.6375 14.7799 22.6996 14.3644C24.7618 13.949 26.8993 14.1622 28.8418 14.9771C30.7843 15.7921 32.4446 17.1721 33.6127 18.9427C34.7808 20.7133 35.4043 22.795 35.4043 24.9245C35.4011 27.7791 34.28 30.5159 32.2871 32.5344C30.2941 34.5529 27.592 35.6883 24.7736 35.6915Z" fill="#A8A5CE" stroke="#A8A5CE"/>
</svg>

<svg viewBox="0 0 50 50" fill="none" xmlns="http://www.w3.org/2000/svg"><path d="M24.81 20.19c.54 0 1.06.22 1.44.6.38.4.6.92.6 1.47 0 .15.05.3.16.4a.56.56 0 00.8 0c.11-.1.17-.25.17-.4 0-.77-.27-1.52-.77-2.1a3.16 3.16 0 00-1.93-1.09V17.9a.56.56 0 00-.97-.4c-.1.1-.16.25-.16.4v1.2a3.26 3.26 0 00-1.46 5.55c.58.54 1.34.83 2.12.83a2.01 2.01 0 011.88 1.28 2.1 2.1 0 01-.44 2.25 2.03 2.03 0 01-3.48-1.46.56.56 0 00-.97-.4c-.1.1-.16.25-.16.4a3.17 3.17 0 002.5 3.15v1.14c0 .15.07.3.17.4a.56.56 0 00.8 0c.11-.1.17-.25.17-.4v-1.1c.8-.12 1.51-.54 2-1.18a3.26 3.26 0 00-.31-4.37 3.14 3.14 0 00-2.16-.86c-.54 0-1.06-.22-1.44-.6a2.09 2.09 0 010-2.93c.38-.4.9-.61 1.44-.61z" fill="#A8A5CE" stroke="#A8A5CE"/><path d="M45.74 21.74a3.26 3.26 0 00-3.19 2.59H41.3a16.25 16.25 0 00-4.37-10.41l.9-.9a3.26 3.26 0 10-.82-.8l-.89.88a16.25 16.25 0 00-10.74-4.38V7.49a3.26 3.26 0 10-1.15-.07v1.3c-3.84.19-7.5 1.72-10.31 4.35l-.9-.9a3.26 3.26 0 10-.8.82l.88.89a16.25 16.25 0 00-4.4 10.54H7.46a3.26 3.26 0 100 1.15H8.7a16.25 16.25 0 004.45 10.64l-.86.86a3.25 3.25 0 10.79.84l.88-.89a16.25 16.25 0 0010.37 4.3v1.23a3.26 3.26 0 101.15-.03v-1.2c4-.11 7.83-1.7 10.74-4.47l.85.85a3.26 3.26 0 10.84-.78l-.89-.89a16.25 16.25 0 004.28-10.55h1.22a3.26 3.26 0 103.22-3.74zM4.26 27.11a2.1 2.1 0 110-4.22 2.1 2.1 0 010 4.22zM38.18 8.84a2.1 2.1 0 112.98 2.98 2.1 2.1 0 01-2.98-2.98zM22.89 4.26a2.1 2.1 0 114.22 0 2.1 2.1 0 01-4.22 0zM8.84 11.82a2.1 2.1 0 112.98-2.98 2.1 2.1 0 01-2.98 2.98zm2.98 29.34a2.1 2.1 0 11-2.98-2.99 2.1 2.1 0 012.98 2.99zm15.29 4.58a2.11 2.11 0 11-4.22 0 2.11 2.11 0 014.22 0zm14.05-7.57a2.1 2.1 0 11-2.98 2.99 2.1 2.1 0 012.98-2.99zM25 40.18c-8.36 0-15.16-6.8-15.16-15.16S16.64 9.86 25 9.86s15.16 6.8 15.16 15.16S33.36 40.18 25 40.18zm20.74-13.07a2.1 2.1 0 110-4.22 2.1 2.1 0 010 4.22z" fill="#A8A5CE" stroke="#A8A5CE"/><path d="M24.77 13c-2.32 0-4.6.7-6.54 2.01a12.07 12.07 0 00-1.78 18.35 11.73 11.73 0 0012.83 2.58 11.8 11.8 0 005.28-4.4A12.03 12.03 0 0033.1 16.5c-2.2-2.24-5.2-3.5-8.32-3.5zm0 22.7c-2.1 0-4.15-.64-5.9-1.82a10.9 10.9 0 01-1.61-16.57 10.6 10.6 0 0111.58-2.33c1.94.81 3.6 2.2 4.77 3.96a10.87 10.87 0 01-1.32 13.6c-2 2.01-4.7 3.15-7.52 3.15z" fill="#A8A5CE" stroke="#A8A5CE"/></svg>
